X: 42434
T: West's
R: hornpipe
M: 4/4
K: Fmajor
|:[A2f2] AB cAcA|[A2f2] AB cAcA|dcBA G2 ga|bgaf fedc|
[A2f2] AB cAcA|[A2f2] AB cAcA|dcBA G2ga|bgfe f2 z2:|
|:a2 fa fafa|g2 eg egeg|a2 fa fafa|gfed c2 de|
fefe ecec|fdfd ecec|fagf edc=B|1 cGEG Cefg:|2 cGEG Cgfe||

